src/assets/images/benefits/05.svg

<svg width="160" height="160" viewBox="0 0 160 160" fill="none" xmlns="http://www.w3.org/2000/svg">
<rect x="1" y="1" width="158" height="158" rx="39" fill="#171E25"/>
<g filter="url(#filter0_d_2_2398)">
<rect x="51.9999" y="51.9999" width="56.0003" height="56.0003" rx="28.0001" fill="url(#paint0_linear_2_2398)"/>
<path d="M67.8468 77.8267C68.2072 78.5661 69.0991 80.0275 69.0991 80.0275L79.41 63.6666L69.3468 70.4116C68.7472 70.7955 68.2553 71.3152 67.9144 71.9249C67.4561 72.8445 67.2126 73.8492 67.2009 74.8686C67.1892 75.888 67.4097 76.8976 67.8468 77.8267Z" fill="#10151A"/>
<path d="M63.7612 83.214C63.8748 84.779 64.3355 86.3026 65.1123 87.6829C65.8892 89.0631 66.9643 90.268 68.2657 91.2171L79.3964 98.6668C79.3964 98.6668 72.4324 89.0336 66.5585 79.4481C65.9638 78.4353 65.5641 77.3281 65.3783 76.1793C65.2961 75.6592 65.2961 75.1301 65.3783 74.6099C65.2252 74.8823 64.9279 75.44 64.9279 75.44C64.3323 76.6059 63.9267 77.8527 63.7252 79.1367C63.6092 80.4941 63.6212 81.8587 63.7612 83.214Z" fill="#10151A"/>
<path d="M92.1577 84.5067C91.7973 83.7675 90.9055 82.306 90.9055 82.306L80.5946 98.6668L90.6578 91.9263C91.2574 91.5423 91.7493 91.0225 92.0902 90.4129C92.5492 89.4926 92.793 88.4872 92.8048 87.467C92.8164 86.4469 92.5956 85.4365 92.1577 84.5067Z" fill="#10151A"/>
<path d="M96.2433 79.1195C96.1298 77.5544 95.669 76.0308 94.8922 74.6506C94.1154 73.2704 93.0403 72.0654 91.7388 71.1163L80.6082 63.6666C80.6082 63.6666 87.5676 73.2998 93.446 82.8853C94.0392 83.8983 94.4373 85.0056 94.6217 86.1541C94.7039 86.6742 94.7039 87.2034 94.6217 87.7236C94.7749 87.4511 95.0721 86.8934 95.0721 86.8934C95.6677 85.7275 96.0734 84.4807 96.2749 83.1967C96.3924 81.8395 96.3818 80.4748 96.2433 79.1195Z" fill="#10151A"/>
<path d="M67.9144 71.9249C68.2553 71.3152 68.7472 70.7955 69.3468 70.4116L79.41 63.6666L69.0991 80.0317C69.0991 80.0317 68.1982 78.5703 67.8468 77.8309C67.409 76.9013 67.1882 75.891 67.1998 74.8707C67.2115 73.8505 67.4554 72.8451 67.9144 71.9249ZM63.7612 83.214C63.8748 84.779 64.3355 86.3026 65.1123 87.6829C65.8892 89.0631 66.9643 90.268 68.2657 91.2171L79.3964 98.6668C79.3964 98.6668 72.4324 89.0336 66.5585 79.4481C65.9638 78.4353 65.5641 77.3281 65.3783 76.1793C65.2961 75.6592 65.2961 75.1301 65.3783 74.6099C65.2252 74.8823 64.9279 75.44 64.9279 75.44C64.3323 76.6059 63.9267 77.8527 63.7252 79.1367C63.6092 80.4941 63.6212 81.8587 63.7612 83.214ZM92.1397 84.5111C91.7793 83.7717 90.8875 82.3103 90.8875 82.3103L80.5946 98.6668L90.6578 91.9263C91.2574 91.5423 91.7493 91.0225 92.0902 90.4129C92.5492 89.4926 92.793 88.4872 92.8048 87.467C92.8164 86.4469 92.5956 85.4365 92.1577 84.5067L92.1397 84.5111ZM96.2253 79.1238C96.1117 77.5588 95.651 76.0352 94.8742 74.6549C94.0973 73.2747 93.0222 72.0697 91.7208 71.1207L80.6082 63.6666C80.6082 63.6666 87.5676 73.2998 93.446 82.8853C94.0392 83.8983 94.4373 85.0056 94.6217 86.1541C94.7039 86.6742 94.7039 87.2034 94.6217 87.7236C94.7749 87.4511 95.0721 86.8934 95.0721 86.8934C95.6677 85.7275 96.0734 84.4807 96.2749 83.1967C96.3924 81.8395 96.3818 80.4748 96.2433 79.1195L96.2253 79.1238Z" fill="#10151A"/>
</g>
<rect x="1" y="1" width="158" height="158" rx="39" stroke="#2A3744" stroke-width="2"/>
<defs>
<filter id="filter0_d_2_2398" x="4.99988" y="4.99988" width="150" height="150" filterUnits="userSpaceOnUse" color-interpolation-filters="sRGB">
<feFlood flood-opacity="0" result="BackgroundImageFix"/>
<feColorMatrix in="SourceAlpha" type="matrix" values="0 0 0 0 0 0 0 0 0 0 0 0 0 0 0 0 0 0 127 0" result="hardAlpha"/>
<feOffset/>
<feGaussianBlur stdDeviation="23.5"/>
<feComposite in2="hardAlpha" operator="out"/>
<feColorMatrix type="matrix" values="0 0 0 0 0.458824 0 0 0 0 0.721569 0 0 0 0 0.984314 0 0 0 0.3 0"/>
<feBlend mode="normal" in2="BackgroundImageFix" result="effect1_dropShadow_2_2398"/>
<feBlend mode="normal" in="SourceGraphic" in2="effect1_dropShadow_2_2398" result="shape"/>
</filter>
<linearGradient id="paint0_linear_2_2398" x1="80" y1="51.9999" x2="80" y2="108" gradientUnits="userSpaceOnUse">
<stop stop-color="#A09FFE"/>
<stop offset="1" stop-color="#4ACEF7"/>
</linearGradient>
</defs>
</svg>

<svg width="160" height="160" fill="none" xmlns="http://www.w3.org/2000/svg"><rect x="1" y="1" width="158" height="158" rx="39" fill="#171E25"/><g filter="url(#filter0_d_2_2398)"><rect x="52" y="52" width="56" height="56" rx="28" fill="url(#paint0_linear_2_2398)"/><path d="M67.847 77.827c.36.74 1.252 2.2 1.252 2.2l10.311-16.36-10.063 6.745a4.27 4.27 0 00-1.433 1.513 6.77 6.77 0 00-.713 2.944 6.762 6.762 0 00.646 2.958zm-4.086 5.387a10.685 10.685 0 001.351 4.469 11.15 11.15 0 003.154 3.534l11.13 7.45s-6.964-9.633-12.838-19.219a9.426 9.426 0 01-1.18-3.269 5.025 5.025 0 010-1.57c-.153.273-.45.831-.45.831a12.324 12.324 0 00-1.203 3.697 21.695 21.695 0 00.036 4.077zm28.397 1.293c-.36-.74-1.252-2.201-1.252-2.201l-10.311 16.36 10.063-6.74a4.284 4.284 0 001.432-1.513 6.76 6.76 0 00.715-2.946 6.763 6.763 0 00-.647-2.96zm4.085-5.387a10.683 10.683 0 00-1.35-4.47 11.149 11.149 0 00-3.154-3.534l-11.13-7.45s6.959 9.634 12.837 19.22a9.424 9.424 0 011.176 3.268 5.04 5.04 0 010 1.57c.153-.273.45-.83.45-.83a12.325 12.325 0 001.203-3.697 21.694 21.694 0 00-.032-4.078z" fill="#10151A"/><path d="M67.914 71.925a4.27 4.27 0 011.433-1.513l10.063-6.745L69.1 80.032s-.902-1.462-1.253-2.201a6.762 6.762 0 01-.647-2.96 6.77 6.77 0 01.714-2.946zm-4.153 11.289a10.685 10.685 0 001.351 4.469 11.15 11.15 0 003.154 3.534l11.13 7.45s-6.964-9.633-12.838-19.219a9.426 9.426 0 01-1.18-3.269 5.025 5.025 0 010-1.57c-.153.273-.45.831-.45.831a12.324 12.324 0 00-1.203 3.697 21.695 21.695 0 00.036 4.077zm28.379 1.297c-.36-.74-1.252-2.2-1.252-2.2L80.595 98.666l10.063-6.74a4.284 4.284 0 001.432-1.514 6.76 6.76 0 00.715-2.946 6.763 6.763 0 00-.647-2.96l-.018.004zm4.085-5.387a10.685 10.685 0 00-1.35-4.47 11.15 11.15 0 00-3.154-3.533l-11.113-7.454s6.96 9.633 12.838 19.218a9.424 9.424 0 011.176 3.27c.082.52.082 1.048 0 1.569.153-.273.45-.83.45-.83a12.325 12.325 0 001.203-3.697 21.694 21.694 0 00-.032-4.078l-.018.005z" fill="#10151A"/></g><rect x="1" y="1" width="158" height="158" rx="39" stroke="#2A3744" stroke-width="2"/><defs><linearGradient id="paint0_linear_2_2398" x1="80" y1="52" x2="80" y2="108" gradientUnits="userSpaceOnUse"><stop stop-color="#A09FFE"/><stop offset="1" stop-color="#4ACEF7"/></linearGradient><filter id="filter0_d_2_2398" x="5" y="5" width="150" height="150" filterUnits="userSpaceOnUse" color-interpolation-filters="sRGB"><feFlood flood-opacity="0" result="BackgroundImageFix"/><feColorMatrix in="SourceAlpha" values="0 0 0 0 0 0 0 0 0 0 0 0 0 0 0 0 0 0 127 0" result="hardAlpha"/><feOffset/><feGaussianBlur stdDeviation="23.5"/><feComposite in2="hardAlpha" operator="out"/><feColorMatrix values="0 0 0 0 0.458824 0 0 0 0 0.721569 0 0 0 0 0.984314 0 0 0 0.3 0"/><feBlend in2="BackgroundImageFix" result="effect1_dropShadow_2_2398"/><feBlend in="SourceGraphic" in2="effect1_dropShadow_2_2398" result="shape"/></filter></defs></svg>
